public/img/top/link-4.svg

<svg fill="none" height="150" viewBox="0 0 150 150" width="150" xmlns="http://www.w3.org/2000/svg" xmlns:xlink="http://www.w3.org/1999/xlink"><clipPath id="a"><path d="m1.21387 9.12598h148.562v163.056h-148.562z"/></clipPath><clipPath id="b"><path d="m37.1016 56.8076h78v31h-78z"/></clipPath><mask id="c" height="150" maskUnits="userSpaceOnUse" width="150" x="0" y="0"><path d="m0 0h150v150h-150z" fill="#d9d9d9"/></mask><g mask="url(#c)"><g clip-path="url(#a)"><path d="m75.359 9.12598 53.346 30.79952v61.5985l-53.346 30.8-53.3463-30.8v-61.5985z" fill="#f0f5f6"/></g><g clip-path="url(#b)"><g fill="#003"><path d="m80.062 67.5391c.5331.503.949 1.1159 1.2185 1.7956s.386 1.4098.3415 2.139v8.8231h-2.28v-8.1077c.1101-1.1006-.1886-2.2032-.84-3.1-.3351-.3176-.7306-.5656-1.1633-.7293-.4327-.1638-.894-.2402-1.3567-.2246-.7108-.0259-1.4155.1388-2.04.4769-.6939.3519-1.2756.8886-1.68 1.55-.4084.8566-.6136 1.7947-.6 2.7423v7.3924h-2.16v-13.3539l2.04.8346v.8346c.416-.7962 1.0935-1.4272 1.92-1.7884.8671-.3908 1.8078-.594 2.76-.5962 1.3977-.0404 2.7626.4257 3.84 1.3116z"/><path d="m97.3419 74.2156h-10.44c.0115.6049.1448 1.2015.3922 1.7544.2473.5529.6036 1.0509 1.0478 1.4648.4058.4064.8937.7227 1.4314.9282.5378.2055 1.1133.2955 1.6886.2641.8607-.0197 1.7122-.1808 2.52-.4769.6234-.3298 1.0958-.8846 1.32-1.55l1.92.9538c-.5711.9221-1.352 1.698-2.28 2.2654-1.0817.5236-2.2781.7696-3.48.7154-.9098.0508-1.8199-.0933-2.6688-.4224-.8488-.3292-1.6166-.8357-2.2512-1.4853-.6362-.7115-1.1231-1.542-1.4322-2.4428-.309-.9008-.4341-1.8539-.3678-2.8033-.094-1.8927.5025-3.7555 1.68-5.2462.6246-.6628 1.3908-1.1782 2.2422-1.5083s1.7664-.4666 2.6778-.3994c1.1401-.0539 2.2698.2371 3.24.8346.9529.5513 1.7082 1.3852 2.16 2.3847.489 1.0027.7356 2.105.72 3.2192.0198.5195-.0205 1.0396-.12 1.55zm-9-5.0077c-.78.8678-1.2814 1.9472-1.44 3.1h8.4c-.0236-1.1408-.4482-2.2375-1.2-3.1-.3656-.3516-.7978-.6276-1.2716-.8118-.4739-.1842-.9798-.273-1.4884-.2613-.5476-.0375-1.0971.0386-1.6135.2233-.5165.1847-.9886.4741-1.3865.8498z"/><path d="m112.222 68.1346c1.177 1.4907 1.774 3.3535 1.68 5.2462.116 1.8955-.483 3.766-1.68 5.2461-.635.6496-1.403 1.1561-2.252 1.4853-.848.3291-1.759.4732-2.668.4224-.913.076-1.83-.0564-2.683-.3871-.853-.3306-1.618-.8508-2.237-1.5206-.636-.7115-1.123-1.542-1.432-2.4428-.31-.9009-.435-1.8539-.368-2.8033-.108-1.9145.538-3.7956 1.8-5.2462.619-.6698 1.384-1.19 2.237-1.5206.853-.3307 1.77-.4631 2.683-.3871.909-.0508 1.82.0933 2.668.4224.849.3292 1.617.8357 2.252 1.4853zm-8.28 1.4308c-.869 1.0765-1.298 2.4389-1.2 3.8154-.123 1.3793.309 2.7507 1.2 3.8153.415.4747.933.8499 1.515 1.0977.582.2477 1.212.3616 1.845.3331.613.0191 1.223-.0997 1.784-.3474s1.059-.6181 1.456-1.0834c.891-1.0646 1.322-2.436 1.2-3.8153.097-1.3765-.331-2.7389-1.2-3.8154-.397-.4653-.895-.8357-1.456-1.0834s-1.171-.3665-1.784-.3474c-.633-.0285-1.263.0854-1.845.3331-.582.2478-1.1.623-1.515 1.0977z"/></g><path d="m39.3818 63.6034v19.0769l12.48 4.5308v-19.3154l13.56-5.0077-12.36-4.2923z" fill="#00e599"/><path d="m52.8223 68.6109v10.2539l12.6 4.5308v-19.4347z" fill="#00af92"/></g></g></svg>

<svg width="150" height="150" viewBox="0 0 150 150" fill="none" xmlns="http://www.w3.org/2000/svg">
<mask id="mask0_555_959" style="mask-type:alpha" maskUnits="userSpaceOnUse" x="0" y="0" width="150" height="150">
<rect width="150" height="150" fill="#D9D9D9"/>
</mask>
<g mask="url(#mask0_555_959)">
<g clip-path="url(#clip0_555_959)">
<path d="M75.359 9.12598L128.705 39.9255V101.524L75.359 132.324L22.0127 101.524V39.9255L75.359 9.12598Z" fill="#F0F5F6"/>
</g>
<g clip-path="url(#clip1_555_959)">
<path d="M80.062 67.5391C80.5951 68.0421 81.011 68.655 81.2805 69.3347C81.55 70.0144 81.6665 70.7445 81.622 71.4737V80.2968H79.342V72.1891C79.4521 71.0885 79.1534 69.9859 78.502 69.0891C78.1669 68.7715 77.7714 68.5235 77.3387 68.3598C76.906 68.196 76.4447 68.1196 75.982 68.1352C75.2712 68.1093 74.5665 68.274 73.942 68.6121C73.2481 68.964 72.6664 69.5007 72.262 70.1621C71.8536 71.0187 71.6484 71.9568 71.662 72.9044V80.2968H69.502V66.9429L71.542 67.7775V68.6121C71.958 67.8159 72.6355 67.1849 73.462 66.8237C74.3291 66.4329 75.2698 66.2297 76.222 66.2275C77.6197 66.1871 78.9846 66.6532 80.062 67.5391Z" fill="#000033"/>
<path d="M97.3419 74.2156H86.9019C86.9134 74.8205 87.0467 75.4171 87.2941 75.97C87.5414 76.5229 87.8977 77.0209 88.3419 77.4348C88.7477 77.8412 89.2356 78.1575 89.7733 78.363C90.3111 78.5685 90.8866 78.6585 91.4619 78.6271C92.3226 78.6074 93.1741 78.4463 93.9819 78.1502C94.6053 77.8204 95.0777 77.2656 95.3019 76.6002L97.2219 77.554C96.6508 78.4761 95.8699 79.252 94.9419 79.8194C93.8602 80.343 92.6638 80.589 91.4619 80.5348C90.5521 80.5856 89.642 80.4415 88.7931 80.1124C87.9443 79.7832 87.1765 79.2767 86.5419 78.6271C85.9057 77.9156 85.4188 77.0851 85.1097 76.1843C84.8007 75.2835 84.6756 74.3304 84.7419 73.381C84.6479 71.4883 85.2444 69.6255 86.4219 68.1348C87.0465 67.472 87.8127 66.9566 88.6641 66.6265C89.5155 66.2964 90.4305 66.1599 91.3419 66.2271C92.482 66.1732 93.6117 66.4642 94.5819 67.0617C95.5348 67.613 96.2901 68.4469 96.7419 69.4464C97.2309 70.4491 97.4775 71.5514 97.4619 72.6656C97.4817 73.1851 97.4414 73.7052 97.3419 74.2156ZM88.3419 69.2079C87.5619 70.0757 87.0605 71.1551 86.9019 72.3079H95.3019C95.2783 71.1671 94.8537 70.0704 94.1019 69.2079C93.7363 68.8563 93.3041 68.5803 92.8303 68.3961C92.3564 68.2119 91.8505 68.1231 91.3419 68.1348C90.7943 68.0973 90.2448 68.1734 89.7284 68.3581C89.2119 68.5428 88.7398 68.8322 88.3419 69.2079Z" fill="#000033"/>
<path d="M112.222 68.1346C113.399 69.6253 113.996 71.4881 113.902 73.3808C114.018 75.2763 113.419 77.1468 112.222 78.6269C111.587 79.2765 110.819 79.783 109.97 80.1122C109.122 80.4413 108.211 80.5854 107.302 80.5346C106.389 80.6106 105.472 80.4782 104.619 80.1475C103.766 79.8169 103.001 79.2967 102.382 78.6269C101.746 77.9154 101.259 77.0849 100.95 76.1841C100.64 75.2832 100.515 74.3302 100.582 73.3808C100.474 71.4663 101.12 69.5852 102.382 68.1346C103.001 67.4648 103.766 66.9446 104.619 66.614C105.472 66.2833 106.389 66.1509 107.302 66.2269C108.211 66.1761 109.122 66.3202 109.97 66.6493C110.819 66.9785 111.587 67.485 112.222 68.1346ZM103.942 69.5654C103.073 70.6419 102.644 72.0043 102.742 73.3808C102.619 74.7601 103.051 76.1315 103.942 77.1961C104.357 77.6708 104.875 78.046 105.457 78.2938C106.039 78.5415 106.669 78.6554 107.302 78.6269C107.915 78.646 108.525 78.5272 109.086 78.2795C109.647 78.0318 110.145 77.6614 110.542 77.1961C111.433 76.1315 111.864 74.7601 111.742 73.3808C111.839 72.0043 111.411 70.6419 110.542 69.5654C110.145 69.1001 109.647 68.7297 109.086 68.482C108.525 68.2343 107.915 68.1155 107.302 68.1346C106.669 68.1061 106.039 68.22 105.457 68.4677C104.875 68.7155 104.357 69.0907 103.942 69.5654Z" fill="#000033"/>
<path d="M39.3818 63.6034V82.6803L51.8618 87.2111V67.8957L65.4218 62.888L53.0618 58.5957L39.3818 63.6034Z" fill="#00E599"/>
<path d="M52.8223 68.6109V78.8648L65.4223 83.3956V63.9609L52.8223 68.6109Z" fill="#00AF92"/>
</g>
</g>
<defs>
<clipPath id="clip0_555_959">
<rect width="148.562" height="163.056" fill="white" transform="translate(1.21387 9.12598)"/>
</clipPath>
<clipPath id="clip1_555_959">
<rect width="78" height="31" fill="white" transform="translate(37.1016 56.8076)"/>
</clipPath>
</defs>
</svg>
